X:1
T:Title
%%score { 1 | ( 2 3 ) }
L:1/8
Q:1/4=93
M:6/8
K:F
V:1 treble nm="Grand Piano"
V:2 bass 
V:3 bass 
V:1
 ABc FGA | D3 G3 | [B,EG][A,FA][EB] [CE][CF][EG] | A6 | ABc FGA | D3 [DG]3 | %6
w: Elisha~A.~Hoffman * * * * *||||||
 [EG][FA][EB] [CE][EA][EG] | F6 | AcB A F2 | FAG [DF] D2 | DEF AG>D | [EG]6 | AcB A F2 | %13
w: |||||||
 FAG [DF] [B,D]2 | %14
w: |
 [EG][FA][EB] [CE][EA]>G[Q:1/4=91][Q:1/4=89][Q:1/4=87][Q:1/4=85][Q:1/4=83][Q:1/4=81][Q:1/4=79][Q:1/4=78][Q:1/4=76][Q:1/4=74][Q:1/4=72] | %15
w: |
 F6 |] %16
w: |
V:2
 [F,F][F,G,F][F,A,F] [F,A,][F,B,F][F,CF] | z3 D3 | C,C,[C,G,] [C,G,][C,A,][C,C] | [F,CF]6 | %4
 [F,F][F,G,F][F,A,F] [F,A,][F,B,F][F,CF] | [B,,B,]3 [B,,B,]3 | %6
 [C,B,][C,A,][C,G,] [C,G,][C,C][C,B,] | [F,A,]6 | [F,CF][F,_EF][F,DF] [F,CF] [F,A,]2 | %9
 [F,A,][F,CF][F,A,C] [B,,B,] [B,,F,B,]2 | [G,=B,][G,C][G,D] [G,B,][G,B,D]>[G,B,] | [C,C]6 | %12
 [F,CF][F,_EF][F,DF] [F,CF] [F,A,]2 | [F,A,][F,CF][F,A,C] [B,,B,] [B,,F,]2 | %14
 [C,B,][C,A,][C,G,] [C,G,][C,C]>[C,B,C] | [F,A,C]6 |] %16
V:3
 x6 | [B,,B,]6 | x6 | x6 | x6 | x6 | x6 | x6 | x6 | x6 | x6 | x6 | x6 | x6 | x6 | x6 |] %16

